packages/icons/src/governance-shield.svg

<svg fill="none" viewBox="0 0 34 34" xmlns="http://www.w3.org/2000/svg"><path clip-rule="evenodd" d="m7.08301 18.4428v-10.62366l9.91609-2.15239 9.9172 2.15239v10.62256c0 4.2071-3.3057 7.5043-9.9172 9.8917-6.6107-2.3875-9.91609-5.6842-9.91609-9.8906zm18.41669-.0011v-9.48035l-8.5006-1.84488-8.49943 1.84488v9.48145c0 3.3962 2.71873 6.1984 8.49943 8.3804 5.7815-2.182 8.5006-4.9847 8.5006-8.3815zm-13.3331-3.6348 1.1662-.8045 2.287 3.3163 5.132-5.0724.9958 1.0075-6.334 6.261z" fill="#25a6f7" fill-rule="evenodd"/></svg>

<svg viewBox="0 0 34 34" fill="none" xmlns="http://www.w3.org/2000/svg">
<path fill-rule="evenodd" clip-rule="evenodd" d="M7.08301 18.4428V7.81914L16.9991 5.66675L26.9163 7.81914V18.4417C26.9163 22.6488 23.6106 25.946 16.9991 28.3334C10.3884 25.9459 7.08301 22.6492 7.08301 18.4428ZM25.4997 18.4417V8.96135L16.9991 7.11647L8.49967 8.96135V18.4428C8.49967 21.839 11.2184 24.6412 16.9991 26.8232C22.7806 24.6412 25.4997 21.8385 25.4997 18.4417ZM12.1666 14.8069L13.3328 14.0024L15.6198 17.3187L20.7518 12.2463L21.7476 13.2538L15.4136 19.5148L12.1666 14.8069Z" fill="#25A6F7"/>
</svg>
